X: 239
T: Wugeng quanfu
L: 1/8
M: 2/4
K: G
A2A d [I:setbarnb 1]| 
A G F G | 
A2z2 | 
d c d e | 
d2z2 | 
A2A d | 
A G =F A | 
G2G G | 
A G A c | 
=F4 | 
G2z2 | 
d2e d | 
c2c A | 
d2d2 | 
=F zz2 | 
A2A d | 
A G =F A | 
G2G G | 
A d =F G | 
A2z2 | 
G3A | 
c3B | 
A2c2 | 
A c A G | 
=F2=F G | 
E DC2 | 
D2D D | 
G =F G A | 
D3C | 
D2z2 |]

@@@ Tune index: 9113
